public/images/wallet/Discountexpired.svg

<svg width="86" height="181" viewBox="0 0 86 181" fill="none" xmlns="http://www.w3.org/2000/svg">
<g filter="url(#filter0_dd_4901_8490)">
<mask id="path-1-inside-1_4901_8490" fill="white">
<path fill-rule="evenodd" clip-rule="evenodd" d="M4.49721 31.8855C4.49721 16.983 16.578 4.90222 31.4804 4.90222H80.9497V19.9519C68.1873 21.1307 58.4624 27.2433 58.4624 34.6068C58.4624 41.9703 68.1873 48.083 80.9497 49.2618V57.1234C68.1873 58.3023 58.4624 64.4149 58.4624 71.7784C58.4624 79.1419 68.1873 85.2545 80.9497 86.4334V96.7483C68.1873 97.9271 58.4624 104.04 58.4624 111.403C58.4624 118.767 68.1873 124.879 80.9497 126.058V136.378C68.1873 137.557 58.4624 143.669 58.4624 151.033C58.4624 158.396 68.1873 164.509 80.9497 165.688V175.796H31.4804C16.578 175.796 4.49721 163.715 4.49721 148.813V31.8855Z"/>
</mask>
<path fill-rule="evenodd" clip-rule="evenodd" d="M4.49721 31.8855C4.49721 16.983 16.578 4.90222 31.4804 4.90222H80.9497V19.9519C68.1873 21.1307 58.4624 27.2433 58.4624 34.6068C58.4624 41.9703 68.1873 48.083 80.9497 49.2618V57.1234C68.1873 58.3023 58.4624 64.4149 58.4624 71.7784C58.4624 79.1419 68.1873 85.2545 80.9497 86.4334V96.7483C68.1873 97.9271 58.4624 104.04 58.4624 111.403C58.4624 118.767 68.1873 124.879 80.9497 126.058V136.378C68.1873 137.557 58.4624 143.669 58.4624 151.033C58.4624 158.396 68.1873 164.509 80.9497 165.688V175.796H31.4804C16.578 175.796 4.49721 163.715 4.49721 148.813V31.8855Z" fill="#965EFB" fill-opacity="0.7" shape-rendering="crispEdges"/>
<path d="M80.9497 4.90222H81.7367V4.11521H80.9497V4.90222ZM80.9497 19.9519L81.022 20.7355L81.7367 20.6695V19.9519H80.9497ZM80.9497 49.2618H81.7367V48.5441L81.022 48.4781L80.9497 49.2618ZM80.9497 57.1234L81.022 57.9071L81.7367 57.8411V57.1234H80.9497ZM80.9497 86.4334H81.7367V85.7157L81.022 85.6497L80.9497 86.4334ZM80.9497 96.7483L81.022 97.5319L81.7367 97.4659V96.7483H80.9497ZM80.9497 126.058H81.7367V125.341L81.022 125.275L80.9497 126.058ZM80.9497 136.378L81.022 137.161L81.7367 137.095V136.378H80.9497ZM80.9497 165.688H81.7367V164.97L81.022 164.904L80.9497 165.688ZM80.9497 175.796V176.583H81.7367V175.796H80.9497ZM31.4804 4.11521C16.1433 4.11521 3.7102 16.5484 3.7102 31.8855H5.28422C5.28422 17.4177 17.0127 5.68923 31.4804 5.68923V4.11521ZM80.9497 4.11521H31.4804V5.68923H80.9497V4.11521ZM81.7367 19.9519V4.90222H80.1626V19.9519H81.7367ZM59.2494 34.6068C59.2494 31.301 61.4352 28.1433 65.3466 25.6215C69.2437 23.109 74.7366 21.3161 81.022 20.7355L80.8773 19.1682C74.4003 19.7664 68.6496 21.6192 64.4937 24.2986C60.352 26.9688 57.6754 30.5492 57.6754 34.6068H59.2494ZM81.022 48.4781C74.7366 47.8976 69.2437 46.1046 65.3466 43.5921C61.4352 41.0704 59.2494 37.9127 59.2494 34.6068H57.6754C57.6754 38.6645 60.352 42.2448 64.4937 44.915C68.6496 47.5944 74.4003 49.4472 80.8773 50.0455L81.022 48.4781ZM81.7367 57.1234V49.2618H80.1626V57.1234H81.7367ZM59.2494 71.7784C59.2494 68.4725 61.4352 65.3148 65.3466 62.7931C69.2437 60.2806 74.7366 58.4877 81.022 57.9071L80.8773 56.3398C74.4003 56.938 68.6496 58.7908 64.4937 61.4702C60.352 64.1404 57.6754 67.7207 57.6754 71.7784H59.2494ZM81.022 85.6497C74.7366 85.0691 69.2437 83.2762 65.3466 80.7637C61.4352 78.242 59.2494 75.0843 59.2494 71.7784H57.6754C57.6754 75.836 60.352 79.4164 64.4937 82.0866C68.6496 84.766 74.4003 86.6188 80.8773 87.217L81.022 85.6497ZM81.7367 96.7483V86.4334H80.1626V96.7483H81.7367ZM59.2494 111.403C59.2494 108.097 61.4352 104.94 65.3466 102.418C69.2437 99.9054 74.7366 98.1125 81.022 97.5319L80.8773 95.9646C74.4003 96.5628 68.6496 98.4156 64.4937 101.095C60.352 103.765 57.6754 107.346 57.6754 111.403H59.2494ZM81.022 125.275C74.7366 124.694 69.2437 122.901 65.3466 120.389C61.4352 117.867 59.2494 114.709 59.2494 111.403H57.6754C57.6754 115.461 60.352 119.041 64.4937 121.711C68.6496 124.391 74.4003 126.244 80.8773 126.842L81.022 125.275ZM81.7367 136.378V126.058H80.1626V136.378H81.7367ZM59.2494 151.033C59.2494 147.727 61.4352 144.569 65.3466 142.047C69.2437 139.535 74.7366 137.742 81.022 137.161L80.8773 135.594C74.4003 136.192 68.6496 138.045 64.4937 140.724C60.352 143.395 57.6754 146.975 57.6754 151.033H59.2494ZM81.022 164.904C74.7366 164.323 69.2437 162.53 65.3466 160.018C61.4352 157.496 59.2494 154.339 59.2494 151.033H57.6754C57.6754 155.09 60.352 158.671 64.4937 161.341C68.6496 164.02 74.4003 165.873 80.8773 166.471L81.022 164.904ZM81.7367 175.796V165.688H80.1626V175.796H81.7367ZM31.4804 176.583H80.9497V175.009H31.4804V176.583ZM3.7102 148.813C3.7102 164.15 16.1434 176.583 31.4804 176.583V175.009C17.0127 175.009 5.28422 163.28 5.28422 148.813H3.7102ZM3.7102 31.8855V148.813H5.28422V31.8855H3.7102Z" fill="#D9D9D9" mask="url(#path-1-inside-1_4901_8490)"/>
</g>
<path d="M39.0753 137.759L39.0753 144.167L20.1662 144.167L20.1662 137.63C20.1662 135.753 20.5448 134.14 21.3019 132.792C22.0528 131.438 23.1331 130.398 24.5427 129.671C25.9522 128.945 27.6388 128.582 29.6023 128.582C31.572 128.582 33.2647 128.948 34.6804 129.681C36.0962 130.407 37.1826 131.456 37.9397 132.829C38.6968 134.195 39.0753 135.839 39.0753 137.759ZM36.1116 140.742L36.1116 137.926C36.1116 136.608 35.8715 135.51 35.3914 134.629C34.9051 133.749 34.1819 133.088 33.2216 132.644C32.2553 132.201 31.0488 131.98 29.6023 131.98C28.1558 131.98 26.9555 132.201 26.0015 132.644C25.0412 133.088 24.3241 133.743 23.8502 134.611C23.3701 135.473 23.13 136.544 23.13 137.824L23.13 140.742L36.1116 140.742ZM39.0753 125.475L24.8935 125.475L24.8935 122.133L39.0753 122.133L39.0753 125.475ZM22.8807 123.795C22.8807 124.324 22.7053 124.779 22.3545 125.161C21.9974 125.543 21.5696 125.733 21.0711 125.733C20.5663 125.733 20.1385 125.543 19.7877 125.161C19.4307 124.779 19.2522 124.324 19.2522 123.795C19.2522 123.259 19.4307 122.804 19.7877 122.428C20.1385 122.046 20.5663 121.856 21.0711 121.856C21.5696 121.856 21.9974 122.046 22.3545 122.428C22.7053 122.804 22.8807 123.259 22.8807 123.795ZM28.6421 107.487L28.9745 110.534C28.6667 110.62 28.3774 110.771 28.1066 110.986C27.8357 111.195 27.6172 111.479 27.451 111.836C27.2848 112.193 27.2018 112.63 27.2018 113.147C27.2018 113.842 27.3526 114.427 27.6542 114.901C27.9558 115.369 28.3466 115.6 28.8268 115.593C29.2392 115.6 29.5746 115.449 29.8331 115.141C30.0917 114.827 30.304 114.31 30.4702 113.59L30.9873 111.171C31.2766 109.829 31.7351 108.832 32.363 108.179C32.9908 107.521 33.8125 107.188 34.8282 107.182C35.7207 107.188 36.5086 107.45 37.1918 107.967C37.8689 108.478 38.3982 109.189 38.7799 110.1C39.1615 111.011 39.3523 112.057 39.3523 113.239C39.3523 114.975 38.9892 116.372 38.2628 117.431C37.5304 118.489 36.5116 119.12 35.2067 119.323L34.8928 116.064C35.533 115.917 36.0161 115.603 36.3424 115.122C36.6686 114.642 36.8317 114.018 36.8317 113.248C36.8317 112.454 36.6686 111.817 36.3424 111.337C36.0161 110.851 35.613 110.608 35.1329 110.608C34.7266 110.608 34.3911 110.765 34.1265 111.078C33.8618 111.386 33.6587 111.866 33.5171 112.519L33.0093 114.938C32.7261 116.298 32.2491 117.305 31.5782 117.957C30.9011 118.609 30.0455 118.933 29.0114 118.926C28.1374 118.933 27.3803 118.696 26.7401 118.216C26.0938 117.729 25.5952 117.055 25.2444 116.194C24.8874 115.326 24.7089 114.325 24.7089 113.193C24.7089 111.531 25.0628 110.223 25.7706 109.269C26.4785 108.309 27.4357 107.715 28.6421 107.487ZM39.3523 98.24C39.3523 99.6557 39.0415 100.871 38.4198 101.887C37.7981 102.897 36.9394 103.675 35.8438 104.223C34.742 104.765 33.474 105.035 32.0398 105.035C30.5995 105.035 29.3284 104.758 28.2266 104.205C27.1187 103.651 26.2569 102.869 25.6414 101.859C25.0197 100.844 24.7089 99.6434 24.7089 98.2585C24.7089 97.1074 24.9212 96.0887 25.3459 95.2024C25.7645 94.3099 26.3585 93.5989 27.1279 93.0696C27.8911 92.5402 28.7837 92.2386 29.8054 92.1647L29.8054 95.3593C29.1222 95.4886 28.5528 95.7964 28.0973 96.2826C27.6357 96.7628 27.4049 97.406 27.4049 98.2123C27.4049 98.8956 27.5895 99.4957 27.9589 100.013C28.322 100.53 28.8452 100.933 29.5285 101.222C30.2117 101.505 31.0303 101.647 31.9844 101.647C32.9508 101.647 33.7818 101.505 34.4773 101.222C35.1667 100.939 35.6991 100.542 36.0746 100.031C36.4439 99.5142 36.6286 98.9079 36.6286 98.2123C36.6286 97.7199 36.5363 97.2798 36.3516 96.892C36.1608 96.4981 35.8869 96.1688 35.5299 95.9041C35.1729 95.6394 34.7389 95.4578 34.228 95.3593L34.228 92.1647C35.2313 92.2448 36.1208 92.5402 36.8964 93.0511C37.6658 93.562 38.269 94.2575 38.706 95.1377C39.1369 96.018 39.3523 97.052 39.3523 98.24ZM39.3523 83.2342C39.3523 84.6191 39.0476 85.8194 38.4383 86.835C37.8289 87.8506 36.9764 88.6385 35.8807 89.1987C34.7851 89.7526 33.5048 90.0296 32.0398 90.0296C30.5749 90.0296 29.2915 89.7526 28.1897 89.1987C27.0879 88.6385 26.2323 87.8506 25.6229 86.835C25.0135 85.8194 24.7089 84.6191 24.7089 83.2342C24.7089 81.8492 25.0135 80.6489 25.6229 79.6333C26.2323 78.6177 27.0879 77.8329 28.1897 77.2789C29.2915 76.7188 30.5749 76.4387 32.0398 76.4387C33.5048 76.4387 34.7851 76.7188 35.8807 77.2789C36.9764 77.8329 37.8289 78.6177 38.4383 79.6333C39.0476 80.6489 39.3523 81.8492 39.3523 83.2342ZM36.6748 83.2157C36.6748 82.4648 36.4686 81.8369 36.0562 81.3322C35.6376 80.8274 35.0775 80.452 34.3758 80.2058C33.6741 79.9534 32.8923 79.8272 32.0306 79.8272C31.1627 79.8272 30.3779 79.9534 29.6762 80.2058C28.9683 80.452 28.4051 80.8274 27.9866 81.3322C27.568 81.8369 27.3587 82.4648 27.3587 83.2157C27.3587 83.9851 27.568 84.6253 27.9866 85.1362C28.4051 85.6409 28.9683 86.0194 29.6762 86.2718C30.3779 86.518 31.1627 86.6411 32.0306 86.6411C32.8923 86.6411 33.6741 86.518 34.3758 86.2718C35.0775 86.0194 35.6376 85.6409 36.0562 85.1362C36.4686 84.6253 36.6748 83.9851 36.6748 83.2157ZM33.1108 64.5628L24.8935 64.5628L24.8935 61.2205L39.0753 61.2205L39.0753 64.4613L36.5547 64.4613L36.5547 64.609C37.3488 64.9291 37.9982 65.4553 38.5029 66.1878C39.0076 66.9141 39.26 67.8097 39.26 68.8746C39.26 69.8041 39.0538 70.6258 38.6414 71.3398C38.2228 72.0477 37.6165 72.6016 36.8225 73.0017C36.0223 73.4018 35.0559 73.6019 33.9233 73.6019L24.8935 73.6019L24.8935 70.2596L33.4063 70.2596C34.305 70.2596 35.019 70.0133 35.5483 69.5209C36.0777 69.0285 36.3424 68.3822 36.3424 67.582C36.3424 67.0896 36.2223 66.6125 35.9823 66.1509C35.7422 65.6892 35.3852 65.3107 34.9113 65.0152C34.4312 64.7136 33.831 64.5628 33.1108 64.5628ZM30.7657 54.4412L39.0753 54.4412L39.0753 57.7835L24.8935 57.7835L24.8935 54.5889L27.3033 54.5889L27.3033 54.4227C26.5093 54.0965 25.8784 53.5764 25.4106 52.8624C24.9428 52.1422 24.7089 51.2527 24.7089 50.194C24.7089 49.2153 24.9181 48.3628 25.3367 47.6365C25.7553 46.904 26.3615 46.3377 27.1556 45.9376C27.9496 45.5314 28.9129 45.3313 30.0455 45.3375L39.0753 45.3375L39.0753 48.6798L30.5625 48.6798C29.6146 48.6798 28.8729 48.926 28.3374 49.4185C27.8019 49.9047 27.5341 50.5787 27.5341 51.4405C27.5341 52.0252 27.6634 52.5454 27.9219 53.0009C28.1743 53.4502 28.5405 53.8041 29.0206 54.0626C29.5008 54.315 30.0824 54.4412 30.7657 54.4412ZM24.8935 34.8581L27.4787 34.8581L27.4787 43.0108L24.8935 43.0108L24.8935 34.8581ZM21.4958 40.998L21.4958 37.6557L34.8097 37.6557C35.259 37.6557 35.6037 37.588 35.8438 37.4526C36.0777 37.311 36.2377 37.1263 36.3239 36.8986C36.4101 36.6708 36.4532 36.4185 36.4532 36.1415C36.4532 35.9322 36.4378 35.7414 36.407 35.569C36.3762 35.3905 36.3485 35.2551 36.3239 35.1628L38.9368 34.5996C38.9984 34.7781 39.0661 35.0335 39.14 35.3659C39.2138 35.6921 39.2569 36.0922 39.2692 36.5662C39.2938 37.4033 39.1677 38.1573 38.8907 38.8283C38.6075 39.4992 38.1705 40.0316 37.5796 40.4256C36.9887 40.8134 36.25 41.0042 35.3637 40.998L21.4958 40.998Z" fill="#FEFEFE"/>
<defs>
<filter id="filter0_dd_4901_8490" x="5.24521e-06" y="0.405019" width="85.4468" height="179.888" filterUnits="userSpaceOnUse" color-interpolation-filters="sRGB">
<feFlood flood-opacity="0" result="BackgroundImageFix"/>
<feColorMatrix in="SourceAlpha" type="matrix" values="0 0 0 0 0 0 0 0 0 0 0 0 0 0 0 0 0 0 127 0" result="hardAlpha"/>
<feOffset dy="2.2486"/>
<feGaussianBlur stdDeviation="1.1243"/>
<feComposite in2="hardAlpha" operator="out"/>
<feColorMatrix type="matrix" values="0 0 0 0 0 0 0 0 0 0 0 0 0 0 0 0 0 0 0.1 0"/>
<feBlend mode="normal" in2="BackgroundImageFix" result="effect1_dropShadow_4901_8490"/>
<feColorMatrix in="SourceAlpha" type="matrix" values="0 0 0 0 0 0 0 0 0 0 0 0 0 0 0 0 0 0 127 0" result="hardAlpha"/>
<feOffset/>
<feGaussianBlur stdDeviation="2.2486"/>
<feComposite in2="hardAlpha" operator="out"/>
<feColorMatrix type="matrix" values="0 0 0 0 0 0 0 0 0 0 0 0 0 0 0 0 0 0 0.14 0"/>
<feBlend mode="normal" in2="effect1_dropShadow_4901_8490" result="effect2_dropShadow_4901_8490"/>
<feBlend mode="normal" in="SourceGraphic" in2="effect2_dropShadow_4901_8490" result="shape"/>
</filter>
</defs>
</svg>

<svg width="86" height="181" fill="none" xmlns="http://www.w3.org/2000/svg"><g filter="url(#a)"><mask id="b" fill="#fff"><path fill-rule="evenodd" clip-rule="evenodd" d="M4.497 31.886c0-14.903 12.081-26.984 26.983-26.984h49.47v15.05c-12.763 1.179-22.488 7.291-22.488 14.655 0 7.363 9.725 13.476 22.488 14.655v7.861c-12.763 1.18-22.488 7.292-22.488 14.655 0 7.364 9.725 13.476 22.488 14.655v10.315c-12.763 1.18-22.488 7.292-22.488 14.655 0 7.364 9.725 13.476 22.488 14.655v10.32c-12.763 1.179-22.488 7.291-22.488 14.655 0 7.363 9.725 13.476 22.488 14.655v10.108H31.48c-14.902 0-26.983-12.081-26.983-26.983V31.886Z"/></mask><path fill-rule="evenodd" clip-rule="evenodd" d="M4.497 31.886c0-14.903 12.081-26.984 26.983-26.984h49.47v15.05c-12.763 1.179-22.488 7.291-22.488 14.655 0 7.363 9.725 13.476 22.488 14.655v7.861c-12.763 1.18-22.488 7.292-22.488 14.655 0 7.364 9.725 13.476 22.488 14.655v10.315c-12.763 1.18-22.488 7.292-22.488 14.655 0 7.364 9.725 13.476 22.488 14.655v10.32c-12.763 1.179-22.488 7.291-22.488 14.655 0 7.363 9.725 13.476 22.488 14.655v10.108H31.48c-14.902 0-26.983-12.081-26.983-26.983V31.886Z" fill="#965EFB" fill-opacity=".7" shape-rendering="crispEdges"/><path d="M80.95 4.902h.787v-.787h-.787v.787Zm0 15.05.072.783.715-.066v-.717h-.787Zm0 29.31h.787v-.718l-.715-.066-.072.784Zm0 7.861.072.784.715-.066v-.718h-.787Zm0 29.31h.787v-.717l-.715-.066-.072.783Zm0 10.315.072.784.715-.066v-.718h-.787Zm0 29.31h.787v-.717l-.715-.066-.072.783Zm0 10.32.072.783.715-.066v-.717h-.787Zm0 29.31h.787v-.718l-.715-.066-.072.784Zm0 10.108v.787h.787v-.787h-.787ZM31.48 4.116c-15.337 0-27.77 12.432-27.77 27.77h1.574c0-14.468 11.729-26.197 26.196-26.197V4.115Zm49.47 0H31.48v1.573h49.47V4.115Zm.787 15.836V4.902h-1.574v15.05h1.574ZM59.249 34.607c0-3.306 2.186-6.464 6.098-8.985 3.897-2.513 9.39-4.306 15.675-4.887l-.145-1.567c-6.477.598-12.227 2.451-16.383 5.13-4.142 2.67-6.819 6.251-6.819 10.309h1.574Zm21.773 13.871c-6.285-.58-11.778-2.373-15.675-4.886-3.912-2.522-6.098-5.68-6.098-8.985h-1.574c0 4.057 2.677 7.638 6.819 10.308 4.156 2.68 9.906 4.532 16.383 5.13l.145-1.567Zm.715 8.645v-7.861h-1.574v7.861h1.574ZM59.249 71.778c0-3.306 2.186-6.463 6.098-8.985 3.897-2.512 9.39-4.305 15.675-4.886l-.145-1.567c-6.477.598-12.227 2.45-16.383 5.13-4.142 2.67-6.819 6.25-6.819 10.308h1.574ZM81.022 85.65c-6.285-.58-11.778-2.374-15.675-4.886-3.912-2.522-6.098-5.68-6.098-8.986h-1.574c0 4.058 2.677 7.638 6.819 10.309 4.156 2.679 9.906 4.532 16.383 5.13l.145-1.567Zm.715 11.098V86.433h-1.574v10.315h1.574Zm-22.488 14.655c0-3.306 2.186-6.463 6.098-8.985 3.897-2.513 9.39-4.306 15.675-4.886l-.145-1.567c-6.477.598-12.227 2.45-16.383 5.13-4.142 2.67-6.819 6.251-6.819 10.308h1.574Zm21.773 13.872c-6.285-.581-11.778-2.374-15.675-4.886-3.912-2.522-6.098-5.68-6.098-8.986h-1.574c0 4.058 2.677 7.638 6.819 10.308 4.156 2.68 9.906 4.533 16.383 5.131l.145-1.567Zm.715 11.103v-10.32h-1.574v10.32h1.574Zm-22.488 14.655c0-3.306 2.186-6.464 6.098-8.986 3.897-2.512 9.39-4.305 15.675-4.886l-.145-1.567c-6.477.598-12.227 2.451-16.383 5.13-4.142 2.671-6.819 6.251-6.819 10.309h1.574Zm21.773 13.871c-6.285-.581-11.778-2.374-15.675-4.886-3.912-2.522-6.098-5.679-6.098-8.985h-1.574c0 4.057 2.677 7.638 6.819 10.308 4.156 2.679 9.906 4.532 16.383 5.13l.145-1.567Zm.715 10.892v-10.108h-1.574v10.108h1.574Zm-50.257.787h49.47v-1.574H31.48v1.574Zm-27.77-27.77c0 15.337 12.433 27.77 27.77 27.77v-1.574c-14.467 0-26.196-11.729-26.196-26.196H3.71Zm0-116.927v116.927h1.574V31.886H3.71Z" fill="#D9D9D9" mask="url(#b)"/></g><path d="M39.075 137.759v6.408H20.166v-6.537c0-1.877.379-3.49 1.136-4.838.75-1.354 1.831-2.394 3.24-3.121 1.41-.726 3.097-1.089 5.06-1.089 1.97 0 3.663.366 5.078 1.099 1.416.726 2.503 1.775 3.26 3.148.757 1.366 1.135 3.01 1.135 4.93Zm-2.963 2.983v-2.816c0-1.318-.24-2.416-.72-3.297-.487-.88-1.21-1.541-2.17-1.985-.967-.443-2.173-.664-3.62-.664-1.446 0-2.646.221-3.6.664-.96.444-1.678 1.099-2.152 1.967-.48.862-.72 1.933-.72 3.213v2.918h12.982Zm2.963-15.267H24.893v-3.342h14.182v3.342Zm-16.194-1.68c0 .529-.176.984-.526 1.366-.358.382-.785.572-1.284.572-.505 0-.933-.19-1.283-.572a1.931 1.931 0 0 1-.536-1.366c0-.536.179-.991.536-1.367.35-.382.778-.572 1.283-.572.499 0 .926.19 1.284.572.35.376.526.831.526 1.367Zm5.761-16.308.332 3.047a2.45 2.45 0 0 0-.867.452c-.271.209-.49.493-.656.85-.166.357-.25.794-.25 1.311 0 .695.152 1.28.453 1.754.302.468.693.699 1.173.692.412.007.748-.144 1.006-.452.259-.314.471-.831.637-1.551l.517-2.419c.29-1.342.748-2.339 1.376-2.992.628-.658 1.45-.991 2.465-.997.893.006 1.68.268 2.364.785.677.511 1.206 1.222 1.588 2.133.381.911.572 1.957.572 3.139 0 1.736-.363 3.133-1.09 4.192-.732 1.058-1.75 1.689-3.055 1.892l-.314-3.259c.64-.147 1.123-.461 1.45-.942.326-.48.489-1.104.489-1.874 0-.794-.163-1.431-.49-1.911-.326-.486-.729-.729-1.21-.729-.405 0-.74.157-1.005.47-.265.308-.468.788-.61 1.441l-.508 2.419c-.283 1.36-.76 2.367-1.43 3.019-.678.652-1.534.976-2.568.969-.874.007-1.63-.23-2.27-.71-.647-.487-1.146-1.161-1.497-2.022-.357-.868-.535-1.869-.535-3.001 0-1.662.354-2.97 1.062-3.924.707-.96 1.665-1.554 2.871-1.782Zm10.71-9.247c0 1.416-.31 2.631-.932 3.647-.622 1.01-1.48 1.788-2.576 2.336-1.102.542-2.37.812-3.804.812-1.44 0-2.712-.277-3.813-.83-1.108-.554-1.97-1.336-2.586-2.346-.621-1.015-.932-2.216-.932-3.6 0-1.152.212-2.17.637-3.057.419-.892 1.012-1.603 1.782-2.132.763-.53 1.656-.831 2.677-.905v3.194a3.055 3.055 0 0 0-1.708.924c-.461.48-.692 1.123-.692 1.93 0 .683.184 1.283.554 1.8.363.517.886.92 1.57 1.209.683.283 1.501.425 2.455.425.967 0 1.798-.142 2.493-.425.69-.283 1.222-.68 1.598-1.191.369-.517.554-1.123.554-1.819 0-.492-.093-.932-.277-1.32a2.655 2.655 0 0 0-.822-.988c-.357-.265-.791-.446-1.302-.545v-3.194c1.003.08 1.893.375 2.668.886.77.511 1.373 1.206 1.81 2.087.43.88.646 1.914.646 3.102Zm0-15.006c0 1.385-.304 2.585-.914 3.601-.61 1.016-1.462 1.803-2.557 2.364-1.096.554-2.376.83-3.841.83-1.465 0-2.748-.276-3.85-.83-1.102-.56-1.958-1.348-2.567-2.364-.61-1.016-.914-2.216-.914-3.6 0-1.386.305-2.586.914-3.602.61-1.015 1.465-1.8 2.567-2.354 1.101-.56 2.385-.84 3.85-.84 1.465 0 2.745.28 3.84.84 1.096.554 1.949 1.339 2.558 2.354.61 1.016.914 2.216.914 3.601Zm-2.677-.018c0-.751-.206-1.38-.619-1.884-.418-.505-.978-.88-1.68-1.126-.702-.253-1.484-.379-2.345-.379-.868 0-1.653.126-2.355.379-.708.246-1.27.621-1.69 1.126-.418.505-.627 1.133-.627 1.884 0 .77.209 1.41.628 1.92.418.505.981.883 1.69 1.136.7.246 1.486.37 2.354.37.861 0 1.643-.124 2.345-.37.702-.253 1.262-.631 1.68-1.136.413-.51.619-1.15.619-1.92ZM33.11 64.563h-8.217V61.22h14.181v3.241h-2.52v.148c.794.32 1.443.846 1.948 1.579.505.726.757 1.622.757 2.687 0 .93-.206 1.75-.619 2.465-.418.708-1.024 1.262-1.819 1.662-.8.4-1.766.6-2.899.6h-9.03V70.26h8.513c.899 0 1.613-.247 2.142-.74.53-.492.794-1.138.794-1.938 0-.492-.12-.97-.36-1.431a2.911 2.911 0 0 0-1.07-1.136c-.48-.301-1.081-.452-1.801-.452ZM30.766 54.44h8.31v3.342H24.892V54.59h2.41v-.166a4.053 4.053 0 0 1-1.892-1.56c-.468-.72-.702-1.61-.702-2.669 0-.979.21-1.831.628-2.558.418-.732 1.024-1.298 1.819-1.698.794-.407 1.757-.607 2.89-.6h9.03v3.342h-8.514c-.947 0-1.69.246-2.225.739-.535.486-.803 1.16-.803 2.022 0 .584.13 1.104.388 1.56.252.45.619.803 1.099 1.062.48.252 1.061.378 1.745.378Zm-5.872-19.583h2.585v8.153h-2.585v-8.153Zm-3.398 6.14v-3.342H34.81c.449 0 .794-.068 1.034-.203.234-.142.394-.327.48-.554.086-.228.13-.48.13-.758 0-.209-.016-.4-.047-.572a4.994 4.994 0 0 0-.083-.406l2.613-.563c.061.178.13.433.203.766.074.326.117.726.13 1.2.024.837-.102 1.591-.38 2.262a3.52 3.52 0 0 1-1.31 1.598c-.591.387-1.33.578-2.216.572H21.496Z" fill="#FEFEFE"/><defs><filter id="a" x="0" y=".405" width="85.447" height="179.888" filterUnits="userSpaceOnUse" color-interpolation-filters="sRGB"><feFlood flood-opacity="0" result="BackgroundImageFix"/><feColorMatrix in="SourceAlpha" values="0 0 0 0 0 0 0 0 0 0 0 0 0 0 0 0 0 0 127 0" result="hardAlpha"/><feOffset dy="2.249"/><feGaussianBlur stdDeviation="1.124"/><feComposite in2="hardAlpha" operator="out"/><feColorMatrix values="0 0 0 0 0 0 0 0 0 0 0 0 0 0 0 0 0 0 0.1 0"/><feBlend in2="BackgroundImageFix" result="effect1_dropShadow_4901_8490"/><feColorMatrix in="SourceAlpha" values="0 0 0 0 0 0 0 0 0 0 0 0 0 0 0 0 0 0 127 0" result="hardAlpha"/><feOffset/><feGaussianBlur stdDeviation="2.249"/><feComposite in2="hardAlpha" operator="out"/><feColorMatrix values="0 0 0 0 0 0 0 0 0 0 0 0 0 0 0 0 0 0 0.14 0"/><feBlend in2="effect1_dropShadow_4901_8490" result="effect2_dropShadow_4901_8490"/><feBlend in="SourceGraphic" in2="effect2_dropShadow_4901_8490" result="shape"/></filter></defs></svg>
